X: 1
T:Polka
R:Polka
M:C
O:France
K:G
g2f2ed^cd|e2d2B2Bc|d2c2AAB2\
|1c2e2e2d2:|2c2F2G4:|\
A2A2F4|FEFGA4|F2A2GAGF|1EFGEA2D2:|2EGFED4:|
